src/pos-icons/flip-horizontal.svg

<svg height="24" viewBox="0 0 24 24" width="24" xmlns="http://www.w3.org/2000/svg"><path d="m15 21h2v-2h-2m4-10h2v-2h-2m-16-2v14c0 1.1.9 2 2 2h4v-2h-4v-14h4v-2h-4c-1.1 0-2 .9-2 2m16-2v2h2c0-1.1-.9-2-2-2m-8 20h2v-22h-2m8 16h2v-2h-2m-4-10h2v-2h-2m4 10h2v-2h-2m0 10c1.1 0 2-.9 2-2h-2z"/></svg>

<?xml version="1.0" encoding="UTF-8"?><!DOCTYPE svg PUBLIC "-//W3C//DTD SVG 1.1//EN" "http://www.w3.org/Graphics/SVG/1.1/DTD/svg11.dtd"><svg xmlns="http://www.w3.org/2000/svg" xmlns:xlink="http://www.w3.org/1999/xlink" version="1.1" id="mdi-flip-horizontal" width="24" height="24" viewBox="0 0 24 24"><path d="M15 21H17V19H15M19 9H21V7H19M3 5V19C3 20.1 3.9 21 5 21H9V19H5V5H9V3H5C3.9 3 3 3.9 3 5M19 3V5H21C21 3.9 20.1 3 19 3M11 23H13V1H11M19 17H21V15H19M15 5H17V3H15M19 13H21V11H19M19 21C20.1 21 21 20.1 21 19H19Z" /></svg>
